src/components/stable/gux-icon/icons/cc-finance-invoice.svg

<svg viewBox="0 0 24 33" fill="none" xmlns="http://www.w3.org/2000/svg">
  <path fill-rule="evenodd" clip-rule="evenodd" d="M24 8.23993V28.9997C24 29.7957 23.6842 30.5592 23.1219 31.1226C22.5595 31.686 21.7966 32.0033 21.0006 32.0048H3.00521C2.20818 32.0048 1.44379 31.6882 0.880206 31.1247C0.31662 30.5611 0 29.7967 0 28.9997V3.00515C0 2.20813 0.31662 1.44376 0.880206 0.880188C1.44379 0.316613 2.20818 0 3.00521 0H15.756C16.5512 0.00181332 17.3132 0.318676 17.8752 0.881187L23.1188 6.12469C23.3975 6.40203 23.6188 6.73161 23.77 7.09456C23.9212 7.45752 23.9994 7.84673 24 8.23993ZM16.0003 3.24362V7.99951H20.7563L16.0003 3.24362ZM21.0006 28.9997V10.9998H14.4997C14.1019 10.9998 13.7205 10.8418 13.4392 10.5606C13.158 10.2793 13 9.89789 13 9.50015V3.00515H3.00521V29.0045L21.0006 28.9997ZM18.7175 17.5078H13.47C13.2644 17.5078 13.0938 17.3359 13.0938 17.125V16.3594C13.0938 16.1484 13.2644 15.9766 13.47 15.9766H18.7175C18.9231 15.9766 19.0938 16.1484 19.0938 16.3594V17.125C19.0938 17.3359 18.9231 17.5078 18.7175 17.5078ZM13.47 20.5704H18.7175C18.9231 20.5704 19.0938 20.3986 19.0938 20.1876V19.422C19.0938 19.2111 18.9231 19.0392 18.7175 19.0392H13.47C13.2644 19.0392 13.0938 19.2111 13.0938 19.422V20.1876C13.0938 20.3986 13.2644 20.5704 13.47 20.5704ZM13.4631 23.6329H18.7169C18.9208 23.6329 19.09 23.4611 19.09 23.2501V22.4845C19.09 22.2736 18.9208 22.1017 18.7169 22.1017H13.4631C13.2592 22.1017 13.09 22.2736 13.09 22.4845V23.2501C13.09 23.4611 13.2592 23.6329 13.4631 23.6329ZM7.72781 13.9088C7.84705 13.7761 8.00634 13.7 8.19008 13.7C8.37171 13.7 8.53846 13.7698 8.6582 13.915C8.78354 14.0493 8.83168 14.2192 8.83168 14.3895V14.7278C9.33405 14.8097 9.7684 14.9932 10.1222 15.289C10.517 15.6111 10.839 16.0215 11.0905 16.5141C11.2044 16.7341 11.2649 16.9632 11.2436 17.194L11.2435 17.1955C11.2205 17.4312 11.1071 17.6275 10.9187 17.7685C10.7178 17.9278 10.4768 17.9743 10.2307 17.8901L10.2236 17.8876L10.2166 17.8849C9.99321 17.7957 9.82801 17.6306 9.71873 17.4153L9.71504 17.4081C9.58327 17.1301 9.41927 16.9088 9.22569 16.7379C9.11923 16.6439 8.98921 16.5664 8.83168 16.5082V19.0279C9.528 19.1779 10.1056 19.4869 10.5474 19.9652C11.0568 20.5085 11.3 21.2149 11.3 22.0544C11.3 22.6575 11.1735 23.1906 10.9053 23.6401C10.6523 24.0679 10.3119 24.4097 9.88671 24.6616C9.55466 24.8619 9.20256 24.9999 8.83168 25.0746V25.6104C8.83168 25.7826 8.77817 25.9445 8.66361 26.0783C8.54351 26.228 8.37446 26.3 8.19008 26.3C8.00339 26.3 7.84194 26.2213 7.7221 26.0847C7.60372 25.9497 7.54848 25.7853 7.54848 25.6104V25.1052C7.19401 25.0616 6.85301 24.9755 6.52621 24.8465L6.52435 24.8458C6.11763 24.6821 5.75895 24.4576 5.45131 24.1714L5.4449 24.1655C5.14169 23.8664 4.91574 23.5149 4.76834 23.1138C4.68029 22.8788 4.67109 22.6347 4.77748 22.4056L4.77984 22.4005C4.89554 22.163 5.09702 22.0133 5.35085 21.952C5.569 21.8948 5.77758 21.9447 5.956 22.0697C6.13141 22.1842 6.25423 22.3501 6.33137 22.5474C6.41035 22.7448 6.57463 22.9325 6.86206 23.1006C7.06645 23.2141 7.29457 23.2965 7.54848 23.3455V20.5035C6.83011 20.3398 6.23465 20.0196 5.77837 19.5329L5.77671 19.5311C5.27399 18.986 5.02507 18.3171 5.02507 17.5434C5.02507 17.0035 5.14591 16.52 5.39974 16.1052L5.40043 16.104C5.6545 15.6928 5.99261 15.368 6.41174 15.1335C6.75829 14.9361 7.13802 14.8027 7.54848 14.7315V14.3895C7.54848 14.2166 7.59812 14.0441 7.72781 13.9088ZM7.01414 16.773C6.82415 16.9483 6.71598 17.1963 6.71598 17.556C6.71598 17.7378 6.74625 17.9163 6.80768 18.093C6.86727 18.2451 6.97569 18.3963 7.14808 18.5444C7.2451 18.6228 7.37669 18.6965 7.54848 18.7616V16.4782C7.33747 16.5427 7.16103 16.6422 7.01414 16.773ZM8.83168 20.8136V23.2545C8.9983 23.1793 9.1471 23.0767 9.27979 22.9465C9.48502 22.744 9.59807 22.4699 9.59807 22.0921C9.59807 21.7757 9.50986 21.4915 9.33128 21.2317L9.32917 21.2286C9.22024 21.0658 9.05886 20.9251 8.83168 20.8136Z"/>
</svg>

<svg viewBox="0 0 24 33" fill="none" xmlns="http://www.w3.org/2000/svg"><path clip-rule="evenodd" d="M24 8.24V29a3.005 3.005 0 01-3 3.005H3.006A3.005 3.005 0 010 29V3.005A3.005 3.005 0 013.005 0h12.751a3.005 3.005 0 012.12.881l5.243 5.244A2.99 2.99 0 0124 8.24zm-8-4.996V8h4.756L16 3.244zM21 29V11h-6.5A1.5 1.5 0 0113 9.5V3.005H3.005v26L21.001 29zm-2.282-11.492H13.47a.381.381 0 01-.376-.383v-.766c0-.21.17-.382.376-.382h5.248a.38.38 0 01.376.382v.766c0 .21-.17.383-.377.383zM13.47 20.57h5.248a.381.381 0 00.376-.382v-.766c0-.21-.17-.383-.377-.383H13.47a.381.381 0 00-.376.383v.766c0 .21.17.382.376.382zm-.007 3.063h5.254a.38.38 0 00.373-.383v-.765a.38.38 0 00-.373-.383h-5.254a.38.38 0 00-.373.383v.765c0 .211.17.383.373.383zm-5.735-9.724a.61.61 0 01.462-.209.59.59 0 01.468.215.678.678 0 01.174.475v.338c.502.082.936.265 1.29.561.395.322.717.732.969 1.225.113.22.174.45.153.68v.002a.794.794 0 01-.325.572.703.703 0 01-.688.122l-.007-.002-.007-.003a.95.95 0 01-.498-.47l-.004-.007a2.047 2.047 0 00-.49-.67 1.232 1.232 0 00-.393-.23v2.52c.696.15 1.274.459 1.715.937.51.544.753 1.25.753 2.09 0 .602-.127 1.136-.395 1.585-.253.428-.593.77-1.018 1.022a3.3 3.3 0 01-1.055.413v.535a.705.705 0 01-.168.468.59.59 0 01-.474.222.61.61 0 01-.468-.215.704.704 0 01-.174-.475v-.505a4.154 4.154 0 01-1.022-.259h-.002a3.451 3.451 0 01-1.073-.675l-.006-.005c-.303-.3-.53-.651-.677-1.052a.896.896 0 01.01-.708l.002-.005a.827.827 0 01.57-.449.714.714 0 01.606.118.98.98 0 01.375.477c.08.198.244.386.531.554a2.3 2.3 0 00.686.245v-2.843c-.718-.163-1.313-.483-1.77-.97l-.001-.002c-.503-.545-.752-1.214-.752-1.988 0-.54.12-1.023.375-1.438v-.001a2.754 2.754 0 011.012-.97 3.48 3.48 0 011.136-.402v-.342c0-.173.05-.346.18-.481zm-.714 2.864c-.19.175-.298.423-.298.783 0 .182.03.36.092.537.06.152.168.303.34.451.097.079.229.152.4.218v-2.284a1.41 1.41 0 00-.534.295zm1.818 4.04v2.442a1.57 1.57 0 00.448-.308c.205-.203.318-.477.318-.855 0-.316-.088-.6-.267-.86l-.002-.003a1.231 1.231 0 00-.497-.415z"/></svg>
